Yaru++/mimetypes/48/application-json.svg

<svg height="48" viewBox="0 0 12.7 12.7" width="48" xmlns="http://www.w3.org/2000/svg" xmlns:xlink="http://www.w3.org/1999/xlink"><linearGradient id="a" gradientUnits="userSpaceOnUse" x1="6.350384" x2="6.350384" y1=".396869" y2="12.038536"><stop offset="0" stop-color="#fff"/><stop offset=".125" stop-color="#fff" stop-opacity=".098039"/><stop offset=".92500001" stop-color="#fff" stop-opacity=".098039"/><stop offset="1" stop-color="#fff" stop-opacity=".498039"/></linearGradient><linearGradient id="b" gradientTransform="matrix(.99884 0 0 .998699 689.00774 -388.84375)" gradientUnits="userSpaceOnUse" x1="-666.11664" x2="-553.2699" xlink:href="#c" y1="413.04492" y2="525.90759"/><linearGradient id="c"><stop offset="0" stop-color="#3b3b3b"/><stop offset="1" stop-color="#fff"/></linearGradient><linearGradient id="d" gradientTransform="matrix(.99884 0 0 .998699 689.00774 -388.84375)" gradientUnits="userSpaceOnUse" x1="-553.26971" x2="-666.11639" xlink:href="#c" y1="525.90778" y2="413.0452"/><linearGradient id="e" gradientTransform="matrix(0 -.02997233 .02997147 0 -3.039658 13.626036)" gradientUnits="userSpaceOnUse" x1="459.03448" x2="35.310345" y1="419.23337" y2="207.36522"><stop offset="0" stop-color="#f2f2f2"/><stop offset="1" stop-color="#f9f9f9"/></linearGradient><path d="m4.1624035.39686963c-.5881423-.00896-1.0513696.013541-1.4324701.077515-.3811032.063972-.692957.1839645-.921393.411861-.2284333.22789667-.3490013.53960997-.4123769.92087397-.063376.3812644-.075748.845434-.072864 1.4350545v3.2401122 3.241663c-.00286.5887137.00955 1.0526487.072864 1.4335027.063376.381265.1839436.692978.4123769.920875.228436.227896.5402898.34789.921393.411861.3811032.06397.844259.07752 1.4324701.07752h4.3759596c.5882111 0 1.0511261-.01352 1.4314382-.07752.3803117-.064.6912137-.184399.9188057-.412377.227594-.227978.34745-.53947.411345-.920359.06389-.380886.07752-.844114.07752-1.4335027v-3.241663-3.1750001l-2.8391089-2.84375407z" opacity=".1"/><path d="m4.1625649.39686963c-2.3347311 0-2.585945.2398051-2.5745018 2.57925877v3.2415749 3.241574c-.011456 2.3394537.2397707 2.5792587 2.5745018 2.5792587h4.375994c2.3347311 0 2.5745021-.239779 2.5745021-2.5792587v-3.241574l-.000178-3.1750004-2.645833-2.64583327z" fill="none" opacity=".2" stroke="#000" stroke-width=".529167"/><path d="m4.1625649.39686963c-2.3347311 0-2.585945.2398051-2.5745018 2.57925877v3.2415749 3.241574c-.011456 2.3394537.2397707 2.5792587 2.5745018 2.5792587h4.375994c2.3347311 0 2.5745021-.239779 2.5745021-2.5792587v-3.241574l-.000178-3.1750004-2.645833-2.64583327z" fill="url(#e)"/><g enable-background="new" fill-rule="evenodd" transform="matrix(.0396875 0 0 .0396875 3.175325 4.36562)"><path d="m79.8646 119.09957c35.39768 48.25534 70.03957-13.46852 69.98868-50.58675-.0602-43.88605-44.54091-68.41369-70.01768-68.41369-40.89242 0-79.8356 33.79608-79.8356 80.03589 0 51.396 44.64038 79.86497 79.8356 79.86497-7.96447-1.14675-34.5062-6.83395-34.86292-67.96677-.23987-41.3466 13.48757-57.86551 34.80527-50.59905.47743.17707 23.51392 9.26451 23.51392 38.95053 0 29.55992-23.42727 38.71487-23.42727 38.71487z" fill="url(#b)"/><path d="m79.82327 41.40081c-23.39005-8.06188-52.04302 11.21581-52.04302 49.82881 0 63.04798 46.72055 68.77037 52.38416 68.77037 40.89242 0 79.83559-33.79608 79.83559-80.03589 0-51.396-44.64038-79.86497-79.83559-79.86497 9.74811-1.35 52.54087 10.54991 52.54087 69.0368 0 38.14117-31.95286 58.90496-52.73547 50.03344-.47743-.17707-23.51392-9.26451-23.51392-38.95053 0-29.55992 23.36738-38.81803 23.36738-38.81803z" fill="url(#d)"/></g><path d="m1.5878832 6.2177033v3.241662c-.011456 2.3394527.2397893 2.5791707 2.5745203 2.5791707h4.3759596c2.3347309 0 2.5745199-.239691 2.5745199-2.5791707v-3.241662z" fill="#fff" opacity=".2"/><path d="m6.3503833.39686963v11.64166637h2.1879798c2.3347309 0 2.5745199-.239691 2.5745199-2.5791707v-3.241662-3.1750004l-2.645833-2.64583327z" fill="#fff" opacity=".1"/><path d="m4.1624035.39686963c-2.334731 0-2.5859635.239717-2.5745203 2.57917067v3.241663 3.241662c-.011456 2.3394527.2397893 2.5791707 2.5745203 2.5791707h4.3759596c2.3347309 0 2.5745199-.239691 2.5745199-2.5791707v-3.241662-3.1750004h-.264583v3.1750004 3.241662c0 .5803507-.01625 1.0241217-.07028 1.3461697-.05403.322051-.139877.509149-.264067.633556-.12419.124394-.310716.21051-.6320026.264583-.3212889.05406-.7644342.07028-1.3435886.07028h-4.3759583c-.5791544 0-1.0228501-.01619-1.3451391-.07028-.3222863-.0541-.5103204-.140097-.6351032-.264583-.1247801-.124495-.2105977-.311367-.2640647-.633037-.05347-.32167-.068472-.765549-.06563-1.3456547v-.00053-3.242166-3.2421797-.0005292c-.0028309-.5801064.0121709-1.0239838.06563-1.3456544.0534696-.3216707.1392846-.5085498.2640647-.63303617.1247801-.1244865.3133355-.210484.6356218-.2645834.3222863-.0540745.7654661-.0702675 1.3446205-.0702675h4.3046465v-.2645833z" fill="url(#a)" opacity=".4"/><path d="m11.112883 3.3072862v-.2645833l-2.645833-2.64583327h-.2645834v1.11364547.04267.022918c0 1.506003.2016019 1.7382252 1.7110604 1.7308441z" opacity=".2"/><path d="m11.112883 3.0423642-2.645833-2.64549517v.98132417.04267.022918c0 1.5060031.069406 1.6059637 1.578864 1.5985826z" fill="#faf8f6"/></svg>

<?xml version="1.0" encoding="UTF-8" standalone="no"?>
<svg
   xmlns:dc="http://purl.org/dc/elements/1.1/"
   xmlns:cc="http://creativecommons.org/ns#"
   xmlns:rdf="http://www.w3.org/1999/02/22-rdf-syntax-ns#"
   xmlns:svg="http://www.w3.org/2000/svg"
   xmlns="http://www.w3.org/2000/svg"
   xmlns:xlink="http://www.w3.org/1999/xlink"
   xmlns:sodipodi="http://sodipodi.sourceforge.net/DTD/sodipodi-0.dtd"
   xmlns:inkscape="http://www.inkscape.org/namespaces/inkscape"
   height="48"
   viewBox="0 0 12.7 12.7"
   width="48"
   version="1.1"
   id="svg46"
   sodipodi:docname="application-json.svg"
   inkscape:version="0.92.5 (2060ec1f9f, 2020-04-08)">
  <metadata
     id="metadata52">
    <rdf:RDF>
      <cc:Work
         rdf:about="">
        <dc:format>image/svg+xml</dc:format>
        <dc:type
           rdf:resource="http://purl.org/dc/dcmitype/StillImage" />
      </cc:Work>
    </rdf:RDF>
  </metadata>
  <defs
     id="defs50">
    <linearGradient
       gradientTransform="matrix(0.26458333,0,0,0.26458333,-84.666282,-16.007297)"
       inkscape:collect="always"
       xlink:href="#linearGradient927"
       id="linearGradient1004"
       x1="344"
       y1="62"
       x2="344"
       y2="106"
       gradientUnits="userSpaceOnUse" />
    <linearGradient
       inkscape:collect="always"
       id="linearGradient927">
      <stop
         style="stop-color:#ffffff;stop-opacity:1;"
         offset="0"
         id="stop923" />
      <stop
         id="stop933"
         offset="0.125"
         style="stop-color:#ffffff;stop-opacity:0.09803922" />
      <stop
         id="stop931"
         offset="0.92500001"
         style="stop-color:#ffffff;stop-opacity:0.09803922" />
      <stop
         style="stop-color:#ffffff;stop-opacity:0.49803922"
         offset="1"
         id="stop925" />
    </linearGradient>
    <linearGradient
       inkscape:collect="always"
       xlink:href="#linearGradient8385"
       id="linearGradient2968"
       gradientUnits="userSpaceOnUse"
       gradientTransform="matrix(0.99884,0,0,0.998699,689.00774,-388.84375)"
       x1="-666.11664"
       y1="413.04492"
       x2="-553.2699"
       y2="525.90759" />
    <linearGradient
       id="linearGradient8385">
      <stop
         id="stop8387"
         style="stop-color:#3b3b3b;stop-opacity:1"
         offset="0" />
      <stop
         id="stop8389"
         style="stop-color:#ffffff;stop-opacity:1"
         offset="1" />
    </linearGradient>
    <linearGradient
       inkscape:collect="always"
       xlink:href="#linearGradient8385"
       id="linearGradient2970"
       gradientUnits="userSpaceOnUse"
       gradientTransform="matrix(0.99884,0,0,0.998699,689.00774,-388.84375)"
       x1="-553.26971"
       y1="525.90778"
       x2="-666.11639"
       y2="413.0452" />
    <linearGradient
       inkscape:collect="always"
       xlink:href="#linearGradient4338"
       id="linearGradient1024"
       gradientUnits="userSpaceOnUse"
       gradientTransform="matrix(0,-0.02997233,0.02997147,0,-3.039658,13.626036)"
       x1="459.03448"
       y1="419.23337"
       x2="35.310345"
       y2="207.36522" />
    <linearGradient
       inkscape:collect="always"
       id="linearGradient4338">
      <stop
         style="stop-color:#f2f2f2;stop-opacity:1"
         offset="0"
         id="stop4340" />
      <stop
         style="stop-color:#f9f9f9;stop-opacity:1"
         offset="1"
         id="stop4342" />
    </linearGradient>
  </defs>
  <sodipodi:namedview
     pagecolor="#ffffff"
     bordercolor="#666666"
     borderopacity="1"
     objecttolerance="10"
     gridtolerance="10"
     guidetolerance="10"
     inkscape:pageopacity="0"
     inkscape:pageshadow="2"
     inkscape:window-width="834"
     inkscape:window-height="480"
     id="namedview48"
     showgrid="false"
     inkscape:zoom="4.9166667"
     inkscape:cx="24"
     inkscape:cy="24"
     inkscape:window-x="0"
     inkscape:window-y="28"
     inkscape:window-maximized="0"
     inkscape:current-layer="svg46" />
  <linearGradient
     id="a"
     gradientUnits="userSpaceOnUse"
     x1="344"
     x2="344"
     y1="62"
     y2="106">
    <stop
       offset="0"
       stop-color="#fff"
       id="stop2" />
    <stop
       offset=".125"
       stop-color="#fff"
       stop-opacity=".098039"
       id="stop4" />
    <stop
       offset=".92500001"
       stop-color="#fff"
       stop-opacity=".098039"
       id="stop6" />
    <stop
       offset="1"
       stop-color="#fff"
       stop-opacity=".498039"
       id="stop8" />
  </linearGradient>
  <clipPath
     id="b">
    <path
       d="m335.73108 62c-8.82418 0-9.77365.90635-9.7304 9.74838v12.25162 12.25162c-.0433 8.84203.90622 9.74838 9.7304 9.74838h16.53919c8.82418 0 9.7304-.90625 9.7304-9.74838v-12.25162-12.25162c0-8.84213-.90622-9.74838-9.7304-9.74838z"
       id="path11" />
  </clipPath>
  <linearGradient
     id="c"
     gradientTransform="matrix(.99884 0 0 .998699 689.00774 -388.84375)"
     gradientUnits="userSpaceOnUse"
     x1="-666.11664"
     x2="-553.2699"
     xlink:href="#d"
     y1="413.04492"
     y2="525.90759" />
  <linearGradient
     id="d">
    <stop
       offset="0"
       stop-color="#3b3b3b"
       id="stop15" />
    <stop
       offset="1"
       stop-color="#fff"
       id="stop17" />
  </linearGradient>
  <linearGradient
     id="e"
     gradientTransform="matrix(.99884 0 0 .998699 689.00774 -388.84375)"
     gradientUnits="userSpaceOnUse"
     x1="-553.26971"
     x2="-666.11639"
     xlink:href="#d"
     y1="525.90778"
     y2="413.0452" />
  <linearGradient
     id="f"
     gradientTransform="matrix(0 -.60416661 .60414933 0 246.51532 325.86442)"
     gradientUnits="userSpaceOnUse"
     x1="459.03448"
     x2="35.310345"
     y1="419.23337"
     y2="207.36522">
    <stop
       offset="0"
       stop-color="#f2f2f2"
       id="stop21" />
    <stop
       offset="1"
       stop-color="#f9f9f9"
       id="stop23" />
  </linearGradient>
  <path
     style="color:#000000;font-style:normal;font-variant:normal;font-weight:normal;font-stretch:normal;font-size:medium;line-height:normal;font-family:sans-serif;font-variant-ligatures:normal;font-variant-position:normal;font-variant-caps:normal;font-variant-numeric:normal;font-variant-alternates:normal;font-feature-settings:normal;text-indent:0;text-align:start;text-decoration:none;text-decoration-line:none;text-decoration-style:solid;text-decoration-color:#000000;letter-spacing:normal;word-spacing:normal;text-transform:none;writing-mode:lr-tb;direction:ltr;text-orientation:mixed;dominant-baseline:auto;baseline-shift:baseline;text-anchor:start;white-space:normal;shape-padding:0;clip-rule:nonzero;display:inline;overflow:visible;visibility:visible;opacity:0.1;isolation:auto;mix-blend-mode:normal;color-interpolation:sRGB;color-interpolation-filters:linearRGB;solid-color:#000000;solid-opacity:1;vector-effect:none;fill:#000000;fill-opacity:1;fill-rule:nonzero;stroke:none;stroke-width:0.52916664;stroke-linecap:butt;stroke-linejoin:miter;stroke-miterlimit:4;stroke-dasharray:none;stroke-dashoffset:0;stroke-opacity:1;marker:none;color-rendering:auto;image-rendering:auto;shape-rendering:auto;text-rendering:auto;enable-background:accumulate"
     d="m 4.1624035,0.39686963 c -0.5881423,-0.00896 -1.0513696,0.013541 -1.4324701,0.077515 -0.3811032,0.063972 -0.692957,0.1839645 -0.921393,0.411861 C 1.5801071,1.1141423 1.4595391,1.4258556 1.3961635,1.8071196 1.3327875,2.188384 1.3204155,2.6525536 1.3232995,3.2421741 v 3.2401122 3.241663 c -0.00286,0.5887137 0.00955,1.0526487 0.072864,1.4335027 0.063376,0.381265 0.1839436,0.692978 0.4123769,0.920875 0.228436,0.227896 0.5402898,0.34789 0.921393,0.411861 0.3811032,0.06397 0.844259,0.07752 1.4324701,0.07752 h 4.3759596 c 0.5882111,0 1.0511261,-0.01352 1.4314382,-0.07752 0.3803117,-0.064 0.6912137,-0.184399 0.9188057,-0.412377 0.227594,-0.227978 0.34745,-0.53947 0.411345,-0.920359 0.06389,-0.380886 0.07752,-0.844114 0.07752,-1.4335027 V 6.4822863 3.3072862 L 8.5383631,0.46353213 Z"
     id="path1020"
     inkscape:connector-curvature="0"
     sodipodi:nodetypes="sccsccccccsscccscccs" />
  <path
     style="color:#000000;display:inline;overflow:visible;visibility:visible;opacity:0.2;fill:none;fill-opacity:1;fill-rule:nonzero;stroke:#000000;stroke-width:0.52916664;stroke-miterlimit:4;stroke-dasharray:none;stroke-opacity:1;marker:none;enable-background:accumulate"
     d="m 4.1625649,0.39686963 c -2.3347311,0 -2.585945,0.2398051 -2.5745018,2.57925877 v 3.2415749 3.241574 c -0.011456,2.3394537 0.2397707,2.5792587 2.5745018,2.5792587 h 4.375994 c 2.3347311,0 2.5745021,-0.239779 2.5745021,-2.5792587 V 6.2177033 L 11.112883,3.0427029 8.46705,0.39686963 Z"
     id="path958"
     inkscape:connector-curvature="0"
     sodipodi:nodetypes="scccssscccs" />
  <path
     style="color:#000000;display:inline;overflow:visible;visibility:visible;fill:url(#linearGradient1024);fill-opacity:1;fill-rule:nonzero;stroke:none;stroke-width:0.26458332;marker:none;enable-background:accumulate"
     d="m 4.1625649,0.39686963 c -2.3347311,0 -2.585945,0.2398051 -2.5745018,2.57925877 v 3.2415749 3.241574 c -0.011456,2.3394537 0.2397707,2.5792587 2.5745018,2.5792587 h 4.375994 c 2.3347311,0 2.5745021,-0.239779 2.5745021,-2.5792587 V 6.2177033 L 11.112883,3.0427029 8.46705,0.39686963 Z"
     id="path964"
     inkscape:connector-curvature="0"
     sodipodi:nodetypes="scccssscccs" />
  <g
     style="display:inline;enable-background:new"
     transform="matrix(0.0396875,0,0,0.0396875,3.1753251,4.3656198)"
     id="g961">
    <path
       d="m 79.8646,119.09957 c 35.39768,48.25534 70.03957,-13.46852 69.98868,-50.58675 C 149.79308,24.62677 105.31237,0.09913 79.8356,0.09913 38.94318,0.09913 0,33.89521 0,80.13502 c 0,51.396 44.64038,79.86497 79.8356,79.86497 -7.96447,-1.14675 -34.5062,-6.83395 -34.86292,-67.96677 -0.23987,-41.3466 13.48757,-57.86551 34.80527,-50.59905 0.47743,0.17707 23.51392,9.26451 23.51392,38.95053 0,29.55992 -23.42727,38.71487 -23.42727,38.71487 z"
       id="path957"
       style="color:#000000;display:inline;overflow:visible;visibility:visible;fill:url(#linearGradient2968);fill-opacity:1;fill-rule:evenodd;stroke:none;stroke-width:0.5;marker:none"
       inkscape:connector-curvature="0" />
    <path
       d="M 79.82327,41.40081 C 56.43322,33.33893 27.78025,52.61662 27.78025,91.22962 c 0,63.04798 46.72055,68.77037 52.38416,68.77037 C 121.05683,159.99999 160,126.20391 160,79.9641 160,28.5681 115.35962,0.09913 80.16441,0.09913 c 9.74811,-1.35 52.54087,10.54991 52.54087,69.0368 0,38.14117 -31.95286,58.90496 -52.73547,50.03344 -0.47743,-0.17707 -23.51392,-9.26451 -23.51392,-38.95053 0,-29.55992 23.36738,-38.81803 23.36738,-38.81803 z"
       id="path959"
       style="color:#000000;display:inline;overflow:visible;visibility:visible;fill:url(#linearGradient2970);fill-opacity:1;fill-rule:evenodd;stroke:none;stroke-width:0.5;marker:none"
       inkscape:connector-curvature="0" />
  </g>
  <path
     style="color:#000000;display:inline;overflow:visible;visibility:visible;opacity:0.2;fill:#ffffff;fill-opacity:1;fill-rule:nonzero;stroke:none;stroke-width:0.26458332;marker:none;enable-background:accumulate"
     d="m 1.5878832,6.2177033 v 3.241662 c -0.011456,2.3394527 0.2397893,2.5791707 2.5745203,2.5791707 h 4.3759596 c 2.3347309,0 2.5745199,-0.239691 2.5745199,-2.5791707 v -3.241662 z"
     id="path1006"
     inkscape:connector-curvature="0" />
  <path
     style="color:#000000;display:inline;overflow:visible;visibility:visible;opacity:0.1;fill:#ffffff;fill-opacity:1;fill-rule:nonzero;stroke:none;stroke-width:0.26458332;marker:none;enable-background:accumulate"
     d="M 6.3503833,0.39686963 V 12.038536 h 2.1879798 c 2.3347309,0 2.5745199,-0.239691 2.5745199,-2.5791707 V 6.2177033 3.0427029 L 8.46705,0.39686963 Z"
     id="path1013"
     inkscape:connector-curvature="0"
     sodipodi:nodetypes="ccsscccc" />
  <path
     style="color:#000000;font-style:normal;font-variant:normal;font-weight:normal;font-stretch:normal;font-size:medium;line-height:normal;font-family:sans-serif;font-variant-ligatures:normal;font-variant-position:normal;font-variant-caps:normal;font-variant-numeric:normal;font-variant-alternates:normal;font-feature-settings:normal;text-indent:0;text-align:start;text-decoration:none;text-decoration-line:none;text-decoration-style:solid;text-decoration-color:#000000;letter-spacing:normal;word-spacing:normal;text-transform:none;writing-mode:lr-tb;direction:ltr;text-orientation:mixed;dominant-baseline:auto;baseline-shift:baseline;text-anchor:start;white-space:normal;shape-padding:0;clip-rule:nonzero;display:inline;overflow:visible;visibility:visible;opacity:0.4;isolation:auto;mix-blend-mode:normal;color-interpolation:sRGB;color-interpolation-filters:linearRGB;solid-color:#000000;solid-opacity:1;vector-effect:none;fill:url(#linearGradient1004);fill-opacity:1;fill-rule:nonzero;stroke:none;stroke-width:0.52916664;stroke-linecap:butt;stroke-linejoin:miter;stroke-miterlimit:4;stroke-dasharray:none;stroke-dashoffset:0;stroke-opacity:1;marker:none;color-rendering:auto;image-rendering:auto;shape-rendering:auto;text-rendering:auto;enable-background:accumulate"
     clip-path="none"
     d="m 4.1624035,0.39686963 c -2.334731,0 -2.5859635,0.239717 -2.5745203,2.57917067 v 3.241663 3.241662 c -0.011456,2.3394527 0.2397893,2.5791707 2.5745203,2.5791707 h 4.3759596 c 2.3347309,0 2.5745199,-0.239691 2.5745199,-2.5791707 V 6.2177033 3.0427029 H 10.8483 v 3.1750004 3.241662 c 0,0.5803507 -0.01625,1.0241217 -0.07028,1.3461697 -0.05403,0.322051 -0.139877,0.509149 -0.264067,0.633556 -0.12419,0.124394 -0.310716,0.21051 -0.6320026,0.264583 -0.3212889,0.05406 -0.7644342,0.07028 -1.3435886,0.07028 H 4.1624035 c -0.5791544,0 -1.0228501,-0.01619 -1.3451391,-0.07028 C 2.4949781,11.649574 2.306944,11.563577 2.1821612,11.439091 2.0573811,11.314596 1.9715635,11.127724 1.9180965,10.806054 c -0.05347,-0.32167 -0.068472,-0.765549 -0.06563,-1.3456547 v -5.3e-4 -3.242166 -3.2421797 -5.292e-4 C 1.8496356,2.394888 1.8646374,1.9510106 1.9180965,1.62934 1.9715661,1.3076693 2.0573811,1.1207902 2.1821612,0.99630383 2.3069413,0.87181733 2.4954967,0.78581983 2.817783,0.73172043 3.1400693,0.67764593 3.5832491,0.66145293 4.1624035,0.66145293 H 8.46705 v -0.2645833 z"
     id="path990"
     inkscape:connector-curvature="0" />
  <path
     inkscape:connector-curvature="0"
     style="color:#000000;display:inline;overflow:visible;visibility:visible;opacity:0.2;fill:#000000;fill-opacity:1;fill-rule:nonzero;stroke:none;stroke-width:0.06615189;marker:none;enable-background:accumulate"
     d="M 11.112883,3.3072862 V 3.0427029 L 8.46705,0.39686963 H 8.2024666 v 1.11364547 0.04267 0.022918 c 0,1.506003 0.2016019,1.7382252 1.7110604,1.7308441 z"
     id="rect4158-0-3-62-2"
     sodipodi:nodetypes="ccccccscc" />
  <path
     inkscape:connector-curvature="0"
     style="color:#000000;display:inline;overflow:visible;visibility:visible;fill:#faf8f6;fill-opacity:1;fill-rule:nonzero;stroke:none;stroke-width:0.06615189;marker:none;enable-background:accumulate"
     d="M 11.112883,3.0423642 8.46705,0.39686903 v 0.98132417 0.04267 0.022918 c 0,1.5060031 0.069406,1.6059637 1.578864,1.5985826 z"
     id="rect4158-0-3-62"
     sodipodi:nodetypes="ccccscc" />
</svg>
